svgs/sharp-solid/van-shuttle.svg

<svg xmlns="http://www.w3.org/2000/svg" viewBox="0 0 640 512"><!--! Font Awesome Pro 6.6.0 by @fontawesome - https://fontawesome.com License - https://fontawesome.com/license (Commercial License) Copyright 2024 Fonticons, Inc. --><path d="M32 32L0 32 0 64 0 352l0 32 32 0 32 0c0 53 43 96 96 96s96-43 96-96l128 0c0 53 43 96 96 96s96-43 96-96l32 0 32 0 0-32 0-136 0-11.7-7.5-8.9-128-152L494.9 32 480 32 352 32 192 32 32 32zM546 192l-162 0 0-96 81.1 0L546 192zM64 192l0-96 96 0 0 96-96 0zm160 0l0-96 96 0 0 96-96 0zM432 384a48 48 0 1 1 96 0 48 48 0 1 1 -96 0zM160 336a48 48 0 1 1 0 96 48 48 0 1 1 0-96z"/></svg>

<svg xmlns="http://www.w3.org/2000/svg" viewBox="0 0 640 512"><!--! Font Awesome Pro 6.4.2 by @fontawesome - https://fontawesome.com License - https://fontawesome.com/license (Commercial License) Copyright 2023 Fonticons, Inc. --><path d="M32 32H0V64 352v32H32 64c0 53 43 96 96 96s96-43 96-96H384c0 53 43 96 96 96s96-43 96-96h32 32V352 216 204.3l-7.5-8.9-128-152L494.9 32H480 352 192 32zM546 192H384V96h81.1L546 192zM64 192V96h96v96H64zm160 0V96h96v96H224zM432 384a48 48 0 1 1 96 0 48 48 0 1 1 -96 0zM160 336a48 48 0 1 1 0 96 48 48 0 1 1 0-96z"/></svg>
